src/assets/skills/rxjs.svg

<svg height="100pt" viewBox="0 0 100 100" width="100pt" xmlns="http://www.w3.org/2000/svg" xmlns:xlink="http://www.w3.org/1999/xlink"><radialGradient id="a" cx=".5" cy=".5" fx=".787636" fy=".378476" gradientTransform="matrix(61.002 0 0 43.638 16.584 18.139)" gradientUnits="userSpaceOnUse" r=".898726"><stop offset="0" stop-color="#f80090"/><stop offset="1" stop-color="#4d008e"/></radialGradient><radialGradient id="b" cx=".5" cy=".5" fx=".687389" fy=".043983" gradientTransform="matrix(67.994 0 0 51.434 18.376 33.566)" gradientUnits="userSpaceOnUse" r=".817285"><stop offset="0" stop-color="#57008e"/><stop offset=".291746283" stop-color="#5c008e"/><stop offset="1" stop-color="#f80090"/></radialGradient><linearGradient id="c" gradientTransform="matrix(21.371 0 0 17.033 40.493 64.223)" gradientUnits="userSpaceOnUse" x1="0" x2=".683384" y1=".5" y2="1.230059"><stop offset=".03468814542" stop-color="#f70090"/><stop offset=".59950707421" stop-color="#e50090"/><stop offset=".73228350003" stop-color="#d6008f" stop-opacity=".2"/><stop offset=".87806290842" stop-color="#c10090" stop-opacity="0"/></linearGradient><linearGradient id="d" gradientTransform="matrix(15.418 0 0 8.418 33.566 23.622)" gradientUnits="userSpaceOnUse" x1="0" x2=".868418" y1=".5" y2=".995832"><stop offset=".45496804349" stop-color="#ff0090"/><stop offset=".54127787855" stop-color="#f60090" stop-opacity=".891668"/><stop offset=".59488209528" stop-color="#f70090" stop-opacity=".4"/><stop offset=".67055358149" stop-color="#b2008f" stop-opacity=".15134"/></linearGradient><path d="m0 0h100v100h-100z" fill="#23004d"/><path d="m18.372 59.615c-3.728-19.823 6.125-38.941 28.741-41.484-3.119-3.333-7.379-3.358-9.34-2.953-3.461 1.104-3.352 3.343-7.278 6.236-3.903 2.23-5.863.522-8.707 2.833-2.837 2.294-.857 7.56-2.047 8.583-1.181 2.048-4.845 3.872-5.512 6.458-.551 3.307 1.496 5.669 1.417 8.504.237 2.362-2.351 3.698-1.979 5.613 1.113 3.127 3.26 5.01 4.272 5.878.232.163.477.566.433.332z" fill="#ff0090"/><path d="m58.614 32.174c-.826 0-1.496-.67-1.496-1.496s.67-1.496 1.496-1.496c.827 0 1.496.67 1.496 1.496s-.669 1.496-1.496 1.496zm-39.369 29.603c-3.583-17.228 7.504-31.624 28.975-24.537 12.599 7.371 28.447 6.891 29.162 2.126 1.764-5.711-8.032-17.481-22.679-20.552-29.056-5.669-44.721 25.735-35.458 42.963z" fill="url(#a)"/><path d="m66.909 63.698c4.314.468 8.41-.568 12.205-3.661-5.734 6.395-12.903 9.611-21.13 10.486 3.928 3.339 7.716 4.843 11.34 4.199-10.069 2.779-18.505-.28-28.767-10.499-.537 2.751 2.368 7.037 5.363 9.773-17.376-7.533-18.899-31 2.289-36.772-21.964-10.553-34.384 9.951-28.282 26.756 5.97 12.944 21.88 22.908 39.317 20.717 8.47-1.038 21.118-6.877 26.285-20.717-3.641 3.268-10.151 6.114-13.056 6.333 9.832-4.914 15.139-13.262 13.649-24.673-2.036 4.848-4.723 8.571-8.084 11.129 7.139-11.129 5.914-16.882.63-23.203 3.78 10.394-1.11 21.93-11.759 30.132z" fill="url(#b)"/><path d="m61.863 75.673c-.746-.14 1.691.987-3.02-.26-4.712-1.248-9.509-2.45-18.286-11.19-.537 2.751 2.368 7.037 5.363 9.773 8.085 5.639 2.587 3.002 14.905 7.26.988-1.968 1.038-3.716 1.038-5.583z" fill="url(#c)"/><path d="m46.201 31.399s1.071-1.581 1.488-2.293c.511-.874 1.296-2.466 1.296-2.466s-8.244-2.69-10.267-3.018c-6.289 1.632-6.312 4.267-2.796 8.3.392.449 10.279-.523 10.279-.523z" fill="url(#d)"/></svg>

<?xml version="1.0" encoding="UTF-8" standalone="no"?><!-- Generator: Gravit.io --><svg xmlns="http://www.w3.org/2000/svg" xmlns:xlink="http://www.w3.org/1999/xlink" style="isolation:isolate" viewBox="0 0 100 100" width="100pt" height="100pt"><rect x="0" y="0" width="100" height="100" transform="matrix(1,0,0,1,0,0)" fill="rgb(35,0,77)"/><g><path d=" M 18.372 59.615 C 14.644 39.792 24.497 20.674 47.113 18.131 C 43.994 14.798 39.734 14.773 37.773 15.178 C 34.312 16.282 34.421 18.521 30.495 21.414 C 26.592 23.644 24.632 21.936 21.788 24.247 C 18.951 26.541 20.931 31.807 19.741 32.83 C 18.56 34.878 14.896 36.702 14.229 39.288 C 13.678 42.595 15.725 44.957 15.646 47.792 C 15.883 50.154 13.295 51.49 13.667 53.405 C 14.78 56.532 16.927 58.415 17.939 59.283 C 18.171 59.446 18.416 59.849 18.372 59.615 L 18.372 59.615 Z " fill="rgb(255,0,144)"/><radialGradient id="_rgradient_15" fx="0.7876361119999999" fy="0.378476394" cx="0.5" cy="0.5" r="0.898725577" gradientTransform="matrix(61.002,0,0,43.638,16.584,18.139)" gradientUnits="userSpaceOnUse"><stop offset="0%" stop-opacity="1" style="stop-color:rgb(248,0,144)"/><stop offset="100%" stop-opacity="1" style="stop-color:rgb(77,0,142)"/></radialGradient><path d=" M 58.614 32.174 C 57.788 32.174 57.118 31.504 57.118 30.678 C 57.118 29.852 57.788 29.182 58.614 29.182 C 59.441 29.182 60.11 29.852 60.11 30.678 C 60.11 31.504 59.441 32.174 58.614 32.174 L 58.614 32.174 Z  M 19.245 61.777 C 15.662 44.549 26.749 30.153 48.22 37.24 C 60.819 44.611 76.667 44.131 77.382 39.366 C 79.146 33.655 69.35 21.885 54.703 18.814 C 25.647 13.145 9.982 44.549 19.245 61.777 L 19.245 61.777 Z " fill="url(#_rgradient_15)"/><radialGradient id="_rgradient_16" fx="0.687389016" fy="0.0439833672" cx="0.5" cy="0.5" r="0.817284786" gradientTransform="matrix(67.994,0,0,51.434,18.376,33.566)" gradientUnits="userSpaceOnUse"><stop offset="0%" stop-opacity="1" style="stop-color:rgb(87,0,142)"/><stop offset="29.1746283%" stop-opacity="1" style="stop-color:rgb(92,0,142)"/><stop offset="100%" stop-opacity="1" style="stop-color:rgb(248,0,144)"/></radialGradient><path d=" M 66.909 63.698 C 71.223 64.166 75.319 63.13 79.114 60.037 C 73.38 66.432 66.211 69.648 57.984 70.523 C 61.912 73.862 65.7 75.366 69.324 74.722 C 59.255 77.501 50.819 74.442 40.557 64.223 C 40.02 66.974 42.925 71.26 45.92 73.996 C 28.544 66.463 27.021 42.996 48.209 37.224 C 26.245 26.671 13.825 47.175 19.927 63.98 C 25.897 76.924 41.807 86.888 59.244 84.697 C 67.714 83.659 80.362 77.82 85.529 63.98 C 81.888 67.248 75.378 70.094 72.473 70.313 C 82.305 65.399 87.612 57.051 86.122 45.64 C 84.086 50.488 81.399 54.211 78.038 56.769 C 85.177 45.64 83.952 39.887 78.668 33.566 C 82.448 43.96 77.558 55.496 66.909 63.698 L 66.909 63.698 Z " fill="url(#_rgradient_16)"/><linearGradient id="_lgradient_87" x1="0" y1="0.5" x2="0.683384041998387" y2="1.2300590737344115" gradientTransform="matrix(21.371,0,0,17.033,40.493,64.223)" gradientUnits="userSpaceOnUse"><stop offset="3.4688145416616405%" stop-opacity="1" style="stop-color:rgb(247,0,144)"/><stop offset="59.95070742140424%" stop-opacity="1" style="stop-color:rgb(229,0,144)"/><stop offset="73.2283500026526%" stop-opacity="0.2" style="stop-color:rgb(214,0,143)"/><stop offset="87.80629084166164%" stop-opacity="0" style="stop-color:rgb(193,0,144)"/></linearGradient><path d=" M 61.863 75.673 C 61.117 75.533 63.554 76.66 58.843 75.413 C 54.131 74.165 49.334 72.963 40.557 64.223 C 40.02 66.974 42.925 71.26 45.92 73.996 C 54.005 79.635 48.507 76.998 60.825 81.256 C 61.813 79.288 61.863 77.54 61.863 75.673 L 61.863 75.673 Z " fill="url(#_lgradient_87)"/><linearGradient id="_lgradient_88" x1="0" y1="0.5" x2="0.8684184434425072" y2="0.9958320351579685" gradientTransform="matrix(15.418,0,0,8.418,33.566,23.622)" gradientUnits="userSpaceOnUse"><stop offset="45.496804349098014%" stop-opacity="1" style="stop-color:rgb(255,0,144)"/><stop offset="54.127787855221676%" stop-opacity="0.891668" style="stop-color:rgb(246,0,144)"/><stop offset="59.48820952791386%" stop-opacity="0.4" style="stop-color:rgb(247,0,144)"/><stop offset="67.05535814909803%" stop-opacity="0.151340138" style="stop-color:rgb(178,0,143)"/></linearGradient><path d=" M 46.201 31.399 C 46.201 31.399 47.272 29.818 47.689 29.106 C 48.2 28.232 48.985 26.64 48.985 26.64 C 48.985 26.64 40.741 23.95 38.718 23.622 C 32.429 25.254 32.406 27.889 35.922 31.922 C 36.314 32.371 46.201 31.399 46.201 31.399 L 46.201 31.399 Z " fill="url(#_lgradient_88)"/></g></svg>
